!!!!SEGMENT: pl-sa--554-a-ix-34--005_anonim--rondo.krn
!!!cenid: 18xx:568
!!!COM: Anonim
!!!COM-rismID: pe30004985
!!!CDT:
!!!CNT:
!!!OTL: Rondo
!!!PDT:
!!!AGN: Secular; Rondo
!!!SMS-siglum: PL-SA
!!!SMS-shelfmark: 554/A IX 34
!!!SMS-shelfwork: 005 W
!!!SMS-variant:
!!!SMS-altvar:
!!!NIFC-rismSourceID: 1001069592
!!!NIFC-rismChildID: 1001069597
!!!NIFC-islandoraID: none
!!!URL-pdf-islandora:
!!!URL-scan: https://bc.bdsandomierz.pl/dlibra/publication/1310/edition/1278/content @EN{Scan in the Sandomierz Diocese Digital Library} @PL{Skany w portalu Cyfrowa Biblioteka Diecezjalna w Sandomierzu}
!!!IIIF:
!!!ONB-nifc: Str. 3
!!!AIN: 1 empty
!!!key:
**kern	**kern
*part1	*part1
*staff2	*staff1
*Iempty	*Ipiano
*	*I"Piano
*clefF4	*clefG2
*k[b-e-]	*k[b-e-]
*B-:	*B-:
*M2/4	*M2/4
*>[A,A,B,B]	*>[A,A,B,B]
*>A	*>A
*	*2\right
!	!LO:TX:a:Bi:t=Rondo.:problem='Rondo.' znajduje się po lewej stronie systemu
!	!LO:TX:a:Bi:t=Allegro:rj
8r	8f/
=1	=1
8B-L 8F\	8b-\
8d\J	4b-\
*rep	*
8B-L 8F\	.
.	8qdd/
8d\J	8cc 8a\
*Xrep	*
=2	=2
!LO:SIC:n=1:s=8B-:v	!
8AL 8F\	8ddL 8b-\
8c\J	8ee- 8cc\
*rep	*
8AL 8F\	8cc\
8c\J	8a\J
*Xrep	*
=3	=3
!LO:TX:a:t=P:problem=mixed beam	!
8BB-/L	8b-\
8B-\J	4dd 4b-\
*rep	*
!LO:TX:a:t=P:problem=mixed beam	!
8BB-/L	.
.	8qff/
8B-\J	8ee- 8cc\
*Xrep	*
=4	=4
!LO:TX:a:t=P:problem=mixed beam	!
8FF/L	(>8ffL 8dd\
8F\J	8gg 8ee-\
*rep	*
!LO:TX:a:t=P:problem=mixed beam	!
8FF/L	8ee- 8cc\
8F\J	8ccJ 8a\)
*Xrep	*
=5	=5
!LO:TX:a:t=P:problem=mixed beam	!
8BB-/L	8dd 8b-\
8B-\J	4bb- 4gg\
*rep	*
!LO:TX:a:t=P:problem=mixed beam	!
8BB-/L	.
8B-\J	8aa 8ff\
*Xrep	*
=6	=6
!LO:TX:a:t=P:problem=mixed beam	!
*rep	*
8BB-/L	8aa 8ff\
8B-\J	4gg 4ee-\
*Xrep	*
*rep	*
!LO:TX:a:t=P:problem=mixed beam	!
8BB-/L	.
8B-\J	8ff 8dd\
*Xrep	*
=7	=7
*rep	*
!LO:TX:a:t=P:problem=mixed beam	!
8BB-/L	8ffL 8dd\
8B-\J	8gg 8ee-\
*Xrep	*
!LO:TX:a:t=P:problem=mixed beam	!
8FF/L	8ee- 8cc\
8F\J	8ccJ 8a\
=8	=8
!LO:TX:a:t=P:problem=mixed beam	!
!	!LO:SIC:n=2:s=8an:v
8BB-/L	8cc#XL 8a#X\
8B-\J	8ddJ 8b-\
*rep	*
!LO:TX:a:t=P:problem=mixed beam	!
8BB-/L	4r
8B-\J	.
*Xrep	*
=9	=9
!LO:TX:a:t=P:problem=mixed beam	!
8BB-/L	8b-\
8B-\J	4bb- 4gg\
*rep	*
!LO:TX:a:t=P:problem=mixed beam	!
8BB-/L	.
8B-\J	8aa 8ff\
*Xrep	*
=10	=10
*rep	*
!LO:TX:a:t=P:problem=mixed beam	!
8BB-/L	8aa 8ff\
8B-\J	4gg 4ee-\
*Xrep	*
*rep	*
!LO:TX:a:t=P:problem=mixed beam	!
8BB-/L	.
8B-\J	8ff 8dd\
*Xrep	*
=11	=11
*rep	*
!LO:TX:a:t=P:problem=mixed beam	!
8BB-/L	8ff\L
8B-\J	8een\J
*Xrep	*
*rep	*
!LO:TX:a:t=P:problem=mixed beam	!
8BB-/L	16ff\LL
.	16ee\
8B-\J	16ff\
.	16ee\JJ
*Xrep	*
=12	=12
!LO:TX:a:t=P:problem=mixed beam	!
8FF/L	8ddL 8b-\
8F\J	8ccJ 8a\
4r	8r
.	8cc\
!!LO:LB:g=original
=13	=13
8r	4ff\
8cL 8A 8F\	.
8c 8A 8F\	16r
.	16ff\LL
8cJ 8A 8F\	16aa\
.	16ff\JJ
=14	=14
.	8qbb-/
8r	8ff\L
*tremolo	*
8c 8B- 8G\L	8een\J
8c 8B- 8G\	8r
8c 8B- 8G\J	8cc\
*Xtremolo	*
=15	=15
!LO:TX:a:t=P:problem=w źródle ♮E przed pauzą	!
8r	4gg\
*tremolo	*
!LO:TX:a:t=P:problem=w źródle 3 kropki nad akordem	!
8c 8B- 8G 8En\L	.
8c 8B- 8G 8En\	16r
.	16gg\LL
8c 8B- 8G 8En\J	16bb-\
.	16gg\JJ
*Xtremolo	*
=16	=16
.	8qaa/
8r	8gg\L
*tremolo	*
!LO:TX:a:t=P:problem=w źródle 3 kropki nad akordem	!
8c 8A 8F\L	8ff\J
8c 8A 8F\	8r
8c 8A 8F\J	8cc\
*Xtremolo	*
=17	=17
16F\LL	8.dd\L
16d\	.
16B-\	.
16d\JJ	16een\Jk
.	8qgg/
*rep	*
16F\LL	8ff\L
16d\	.
16B-\	16ee\L
16d\JJ	16dd\JJ
*Xrep	*
=18	=18
16F\LL	8cc\L
16c\	.
16A\	8ff\
16c\JJ	.
*rep	*
16F\LL	8aa\
16c\	.
16A\	8ccc\J
16c\JJ	.
*Xrep	*
=19	=19
16F\LL	8.dd\L
16d\	.
16B-\	.
16d\JJ	16een\Jk
.	8qgg/
*rep	*
16F\LL	8ff\L
16d\	.
16B-\	16ee\L
16d\JJ	16dd\JJ
*Xrep	*
=20	=20
16F\LL	8cc\L
16c\	.
16A\	8aa\
16c\JJ	.
*rep	*
16F\LL	8ff\
16c\	.
16A\	8cc\J
16c\JJ	.
*Xrep	*
=21	=21
16F\LL	(>16dd\LL
16d\	16een\
16B-\	16ff\
16d\JJ	16dd\JJ
16F\LL	8cc\)
16c\	.
16A\	8r
16c\JJ	.
=22	=22
16En\LL	(>16b-\LL
16c\	16cc\
16G\	16dd\
16c\JJ	16b-\JJ
16F\LL	8a/)
16c\	.
16A\	8r
16c\JJ	.
=23	=23
16En\LL	16g/LL
16c\	16a/
16G\	16f#X/
16c\JJ	16a/JJ
*rep	*rep
16En\LL	16g/LL
16c\	16a/
16G\	16f#X/
16c\JJ	16a/JJ
*Xrep	*Xrep
!!LO:LB:g=original
=24	=24
16En\LL	16g\LL
16c\	16b-\
16G\	16b-\
16c\JJ	16dd\JJ
*rep	*
16En\LL	16dd\LL
16c\	16gg\
16G\	16gg\
16c\JJ	16bb-\JJ
*Xrep	*
=25	=25
*rep	*
16En\LL	8.bb-\L
16c\	.
16G\	.
16c\JJ	16gg\Jk
*Xrep	*
*rep	*
16En\LL	16bb-\LL
16c\	16gg\
16G\	16bb-\
16c\JJ	16gg\JJ
*Xrep	*
=26	=26
.	16qqff/LL
.	16qqgg/JJ
16F\LL	4ccc\
16c\	.
16A\	.
16c\JJ	.
*rep	*
16F\LL	16bb-\LL
16c\	16aa\
16A\	16gg\
16c\JJ	16ff\JJ
*Xrep	*
=27	=27
!	!LO:TX:a:t=P:problem=w źródle niejednoznaczny zapis ozdobnika
16C\LL	2ggT>\
16c\	.
16G\	.
16c\JJ	.
*rep	*
16C\LL	.
16c\	.
16G\	.
16c\JJ	.
.	32qqff/LLL
.	32qqgg/JJJ
*Xrep	*
=28	=28
16F\LL	8ff 8dd\
16c\	.
16A\	8r
16c\JJ	.
*rep	*
16F\LL	8ffL 8dd\
16c\	.
16A\	8eenJ 8cc\
16c\JJ	.
*Xrep	*
=29	=29
16F\LL	8dd 8b-\
16d\	.
16B-\	8r
16d\JJ	.
*rep	*
16F\LL	8ddL 8b-\
16d\	.
16B-\	8ccJ 8a\
16d\JJ	.
*Xrep	*
=30	=30
.	8qcc/
16En\LL	8b-\L
16c\	.
16G\	16a\L
16c\JJ	16b-\JJ
*rep	*
16En\LL	8cc\L
16c\	.
16G\	8b-\J
16c\JJ	.
*Xrep	*
=31	=31
16F\LL	8a\
16c\	.
16A\	8r
16c\JJ	.
*rep	*
16F\LL	8ffL 8dd\
16c\	.
16A\	8eenJ 8cc\
16c\JJ	.
*Xrep	*
=32	=32
16F\LL	8dd 8b-\
16d\	.
16B-\	8r
16d\JJ	.
*rep	*
16F\LL	8ddL 8b-\
16d\	.
16B-\	8ccJ 8a\
16d\JJ	.
*Xrep	*
=33	=33
.	8qcc/
16En\LL	8b-\L
16c\	.
16G\	16a\L
16c\JJ	16b-\JJ
*rep	*
!	!LO:TX:a:t=P:problem=mixed beam
16En\LL	8cc\L
16c\	.
!	!LO:SIC:s=8en:v
16G\	8e-/J
16c\JJ	.
*Xrep	*
=34	=34
16F\LL	4f/
16c\	.
16A\	.
16c\JJ	.
16C\LL	8eenL 8cc 8b- 8g\
16c\	.
16En\	8ggJ 8b-\
16c\JJ	.
=35	=35
16F\LL	4ff 4cc 4a\
16c\	.
16A\	.
16c\JJ	.
16C\LL	8eenL 8cc 8b- 8g\
16c\	.
16En\	8ggJ 8b-\
16c\JJ	.
=36	=36
16F\LL	4ff 4cc 4a\
16c\	.
16A\	.
16c\JJ	.
*rep	*
16F\LL	4ff 4cc 4a\
16c\	.
16A\	.
16c\JJ	.
*Xrep	*
=37	=37
4F\	4ff 4a\
4r	4r
=38:|!|:	=38:|!|:
*>B	*>B
8r	4ff\
8cL 8A 8F\	.
8c 8A 8F\	8ff\L
8cJ 8A 8F\	8ff\J
!!LO:LB:g=original
=39	=39
8r	8ff\L
*tremolo	*
!LO:TX:a:t=P:problem=w źródle 3 kropki nad akordem	!
8c 8A 8F\L	16een\L
.	16ff\JJ
8c 8A 8F\	8aa\L
8c 8A 8F\J	8ff\J
*Xtremolo	*
=40	=40
16C\LL	8eenL 8cc\
16c\	.
16G\	8ff 8dd\
16c\JJ	.
*rep	*
16C\LL	8gg 8ee\
16c\	.
16G\	8aaJ 8ff\
16c\JJ	.
*Xrep	*
=41	=41
16F\LL	8bb-L 8gg\
16c\	.
16A\	8aaJ 8ff\
16c\JJ	.
*rep	*
16F\LL	8r
16c\	.
16A\	8ccc 8aa\
16c\JJ	.
*Xrep	*
=42	=42
16C\LL	8eenL 8cc\
16c\	.
16G\	8ff 8dd\
16c\JJ	.
*rep	*
16C\LL	8gg 8ee\
16c\	.
16G\	8aaJ 8ff\
16c\JJ	.
*Xrep	*
=43	=43
16F\LL	8bb-L 8gg\
16c\	.
16A\	8aaJ 8ff\
16c\JJ	.
*rep	*
16F\LL	8r
16c\	.
16A\	8gg 8een\
16c\JJ	.
*Xrep	*
=44	=44
*rep	*
16F\LL	8aaL 8ff\
16c\	.
16A\	8cccJ 8aa\
16c\JJ	.
*Xrep	*
*rep	*
*	*tremolo
!	!LO:TX:a:t=P:problem=w źródle 2 kreski nad akordem
16F\LL	8ccc 8aa\L
16c\	.
16A\	8ccc 8aa\J
16c\JJ	.
*	*Xtremolo
*Xrep	*
=45	=45
*rep	*
16F\LL	4ccc 4aa\
16c\	.
16A\	.
16c\JJ	.
*Xrep	*
*rep	*
16F\LL	8aa\L
16c\	.
16A\	8ff\J
16c\JJ	.
*Xrep	*
=46	=46
!	!LO:SIC:s=16een:v
16C\LL	16ee-\LL
16c\	16cc\
16G\	16ff 16dd\
16c\JJ	16cc\JJ
*rep	*
!	!LO:SIC:n=2:s=16een:v
16C\LL	16ggLL 16ee-\
16c\	16cc\
16G\	16aa 16ff\
16c\JJ	16cc\JJ
*Xrep	*
=47	=47
16F\LL	8bb-L 8gg\
16c\	.
16A\	8aaJ 8ff\
16c\JJ	.
*rep	*
16F\LL	8r
16c\	.
16A\	8ccc 8aa\
16c\JJ	.
*Xrep	*
=48	=48
!	!LO:SIC:s=16een:v
16C\LL	16ee-\LL
16c\	16cc\
16G\	16ff 16dd\
16c\JJ	16cc\JJ
*rep	*
!	!LO:SIC:n=2:s=16een:v
16C\LL	16ggLL 16ee-\
16c\	16cc\
16G\	16aa 16ff\
16c\JJ	16cc\JJ
*Xrep	*
=49	=49
16F\LL	8bb-L 8gg\
16c\	.
16A\	8aaJ 8ff\
16c\JJ	.
*rep	*
16F\LL	8r
16c\	.
16A\	8aa 8ff\
16c\JJ	.
*Xrep	*
=50	=50
*rep	*
16F\LL	4ccc 4aa\
16c\	.
16A\	.
16c\JJ	.
*Xrep	*
*rep	*
16F\LL	16bb-\LL
16c\	16aa\
16A\	16gg\
16c\JJ	16ff\JJ
*Xrep	*
=51	=51
!	!LO:TX:a:t=P:problem=w źródle niejednoznaczny zapis ozdobnika
16C\LL	2ggT\
16c\	.
16G\	.
16c\JJ	.
*rep	*
16C\LL	.
16c\	.
16G\	.
16c\JJ	.
.	32qqff/LLL
.	32qqaa/JJJ
*Xrep	*
=52	=52
4c 4A 4F\	4ff\
4r	8r
.	8f/
*clefG2	*
=53	=53
8r	4b-\
*tremolo	*
!LO:TX:a:t=P:problem=w źródle 3 kropki pod akordem	!
8f 8d 8B-/L	.
8f 8d 8B-/	16r
.	16b-\LL
8f 8d 8B-/J	16dd\
.	16b-\JJ
*Xtremolo	*
=54	=54
.	8qcc/
8r	8b-\L
*tremolo	*
!LO:TX:a:t=P:problem=w źródle 3 kropki pod akordem	!
8f 8e- 8c/L	8a\J
8f 8e- 8c/	8r
8f 8e- 8c/J	8f/
*Xtremolo	*
=55	=55
8r	4cc\
*tremolo	*
8f 8e- 8c 8A/L	.
8f 8e- 8c 8A/	16r
.	16cc\LL
8f 8e- 8c 8A/J	16ee-\
.	16cc\JJ
*Xtremolo	*
!!LO:LB:g=original
=56	=56
.	8qdd/
8r	8cc\L
*tremolo	*
!LO:TX:a:t=P:problem=w źródle 3 kropki pod akordem	!
8f 8d 8B-/L	8b-\J
8f 8d 8B-/	8r
8f 8d 8B-/J	8b-\
*Xtremolo	*
*clefF4	*
=57	=57
!LO:TX:a:t=P:problem=znak początku repetycji	!LO:TX:a:t=P:problem=znak początku repetycji
16BB-/LL	8.gg\L
16G/	.
16E-/	.
16G/JJ	16aa\Jk
.	8qccc/
*rep	*
16BB-/LL	8bb-\L
16G/	.
16E-/	16aa\L
16G/JJ	16gg\JJ
*Xrep	*
=58	=58
16BB-/LL	16ff\LL
16F/	16dd\
16D/	16cc\
16F/JJ	16b-\JJ
*rep	*
16BB-/LL	16a\LL
16F/	16b-\
16D/	16a\
16F/JJ	16b-\JJ
*Xrep	*
!LO:TX:a:t=P:problem=znak końca repetycji	!LO:TX:a:t=P:problem=znak końca repetycji
=59	=59
!LO:TX:a:t=P:problem=powtórzenie taktów oznaczone znakami repetycji	!LO:TX:a:t=P:problem=powtórzenie taktów oznaczone znakami repetycji
!LO:TX:a:t=P:problem=ze względu na użycie *rep w taktach powtarzanych brak możliwości użycia *rep dla dwu taktowego powtórzenia	!
16BB-/LLyy	8.gg\Lyy
16G/yy	.
16E-/yy	.
16G/JJyy	16aa\Jkyy
.	8qccc/yy
*rep	*
16BB-/LLyy	8bb-\Lyy
16G/yy	.
16E-/yy	16aa\Lyy
16G/JJyy	16gg\JJyy
*Xrep	*
=60	=60
16BB-/LLyy	16ff\LLyy
16F/yy	16dd\yy
16D/yy	16cc\yy
16F/JJyy	16b-\JJyy
*rep	*
16BB-/LLyy	16a\LLyy
16F/yy	16b-\yy
16D/yy	16a\yy
16F/JJyy	16b-\JJyy
*Xrep	*
=61	=61
16BB-\LL	16gg\LL
16G\	16aa\
16E-\	16bb-\
16G\JJ	16gg\JJ
16BB-\LL	8ff\
16F\	.
16D\	8r
16F\JJ	.
=62	=62
16AA\LL	16ee-\LL
16F\	16ff\
16C\	16gg\
16F\JJ	16ee-\JJ
16BB-\LL	8dd\
16F\	.
16D\	8r
16F\JJ	.
=63	=63
16AA\LL	16cc\LL
16F\	16dd\
16C\	16bn\
16F\JJ	16dd\JJ
*rep	*rep
16AA\LL	16cc\LL
16F\	16dd\
16C\	16bn\
16F\JJ	16dd\JJ
*Xrep	*Xrep
=64	=64
*rep	*
16AA\LL	16cc\LL
16F\	16ee-\
16C\	16dd\
16F\JJ	16ff\JJ
*Xrep	*
*rep	*
16AA\LL	16ee-\LL
16F\	16gg\
16C\	16ff\
16F\JJ	16aa\JJ
*Xrep	*
=65	=65
*rep	*
16AA\LL	16gg\LL
16F\	16ff#X\
16C\	16gg\
16F\JJ	16ff#\JJ
*Xrep	*
*rep	*
16AA\LL	16gg\LL
16F\	16ee-\
16C\	16dd\
16F\JJ	16cc\JJ
*Xrep	*
=66	=66
16BB-\LL	4ffn\
16F\	.
16D\	.
16F\JJ	.
*rep	*
16BB-\LL	16ee-\LL
16F\	16dd\
16D\	16cc\
16F\JJ	16b-\JJ
*Xrep	*
=67	=67
!	!LO:TX:a:t=P:problem=w źródle niejednoznaczny zapis ozdobnika
16AA\LL	2ccT\
16F\	.
16C\	.
16F\JJ	.
*rep	*
16AA\LL	.
16F\	.
16C\	.
16F\JJ	.
.	32qqb-/LLL
.	32qqcc/JJJ
*Xrep	*
=68	=68
!LO:TX:a:t=P:problem=znak początku repetycji	!LO:TX:a:t=P:problem=znak początku repetycji
8DL 8BB-/	16b-\LL
.	32cc\L
.	32dd\JJJ
8F/J	32ee-\LLL
.	32ff\
.	32gg\
.	32aa\JJJ
*rep	*
8DL 8BB-/	8bb-\L
8F/J	8gg\J
*Xrep	*
=69	=69
8E-L 8C/	8ff\L
8F/J	16gg\L
.	16ee-\JJ
8CL 8FF/	8ddL 8b-\
8F/J	8ccJ 8a\
!LO:TX:a:t=P:problem=znak końca repetycji	!LO:TX:a:t=P:problem=znak końca repetycji
=70	=70
!LO:TX:a:t=P:problem=powtórzenie taktów oznaczone znakami repetycji	!LO:TX:a:t=P:problem=powtórzenie taktów oznaczone znakami repetycji
!LO:TX:a:t=P:problem=ze względu na użycie *rep w taktach powtarzanych brak możliwości użycia *rep dla dwu taktowego powtórzenia	!
8DyyL 8BB-yy/	16b-\LLyy
.	32cc\Lyy
.	32dd\JJJyy
8F/Jyy	32ee-\LLLyy
.	32ff\yy
.	32gg\yy
.	32aa\JJJyy
*rep	*
8DL 8BB-/yy	8bb-\Lyy
8F/Jyy	8gg\Jyy
*Xrep	*
=71	=71
8E-yyL 8C/yy	8ff\Lyy
8F/Jyy	16gg\Lyy
.	16ee-\JJyy
8CyyL 8FF/yy	8ddLyy 8b-\yy
8F/Jyy	8ccJyy 8a\yy
=72	=72
8DL 8BB-/	8b-\L
8F/J	16dd\L
.	16ff\JJ
8CL 8FF/	8ee-\L
8F/J	8cc\J
=73	=73
8DL 8BB-/	8b-\L
8F/J	16dd\L
.	16ff\JJ
8CL 8FF/	8ee-\L
8F/J	8aaJ 8ff 8ee- 8cc\
=74	=74
4B- 4BB-\	4bb- 4ff 4dd\
4B- 4BB-\	4bb- 4ff 4dd\
=75	=75
4B- 4BB-\	4bb- 4ff 4dd\
4r	4r
!LO:TX:a:t=P:problem=ozdobna kreska końcowa	!LO:TX:a:t=P:problem=ozdobna kreska końcowa
==:|!	==:|!
*-	*-
!!!system-decoration: {(s1,s2)}
!!!RDF**kern: > = above
!!!RDF**kern: < = below
!!!EED: Wojciech Jakubiak-Danek
!!!EEV: 2020-12-10
!!!ENC: Andrzej Kubiczek
!!!END: 2020-06-18
!!!YEC: Copyright 2022 Narodowy Instytut Fryderyka Chopina (https://polishscores.org)
!!!YEM: License CC-BY-4.0 (https://creativecommons.org/licenses/by/4.0)
